; generated by Slic3r 1.1.7 on 2015-05-04 at 22:12:58

; perimeters extrusion width = 0.40mm
; infill extrusion width = 0.40mm
; solid infill extrusion width = 0.40mm
; top infill extrusion width = 0.40mm
; support material extrusion width = 0.40mm

G21 ; set units to millimeters
M107
M190 S65 ; wait for bed temperature to be reached
M104 S195 ; set temperature
G28 ; home all axes
G29 Z0.1 ; autolevel
G0 Z80 F5000
G0 X0.0 Y0.0 F5000
M109 S195 ; wait for temperature to be reached
G90 ; use absolute coordinates
G92 E0
M82 ; use absolute distances for extrusion
G1 F9000.000 E-10.00000
G1 Z0.400 F14400.000
G92 E0
G1 X15.800 Y0.000 F14400.000
G1 Z0.200 F14400.000
G1 E10.00000 F9000.000
G1 X15.800 Y23.652 E10.74735 F2160.000
G1 X12.402 Y27.050 E10.89917
G1 X-12.402 Y27.050 E11.68293
G1 X-15.800 Y23.652 E11.83475
G1 X-15.800 Y-23.652 E13.32945
G1 X-12.402 Y-27.050 E13.48127
G1 X12.402 Y-27.050 E14.26503
G1 X15.800 Y-23.652 E14.41685
G1 X15.800 Y-0.060 E15.16231 F2160.000
G1 X15.400 Y0.000 F14400.000
G1 X15.400 Y23.487 E15.90442 F2160.000
G1 X12.237 Y26.650 E16.04577
G1 X-12.237 Y26.650 E16.81906
G1 X-15.400 Y23.487 E16.96041
G1 X-15.400 Y-23.487 E18.44464
G1 X-12.237 Y-26.650 E18.58599
G1 X12.237 Y-26.650 E19.35929
G1 X15.400 Y-23.487 E19.50064 F2160.000
G1 X15.400 Y-0.060 E20.24085
G1 X15.000 Y0.000 F14400.000
G1 X15.000 Y23.321 E20.97773 F2160.000
G1 X12.071 Y26.250 E21.10861
G1 X-12.071 Y26.250 E21.87143
G1 X-15.000 Y23.321 E22.00231
G1 X-15.000 Y-23.321 E23.47607
G1 X-12.071 Y-26.250 E23.60695
G1 X12.071 Y-26.250 E24.36977
G1 X15.000 Y-23.321 E24.50065
G1 X15.000 Y-0.060 E25.23564 F2160.000
G1 X14.600 Y0.000 F14400.000
G1 X14.600 Y23.155 E25.96728 F2160.000
G1 X11.905 Y25.850 E26.08769
G1 X-11.905 Y25.850 E26.84004
G1 X-14.600 Y23.155 E26.96045
G1 X-14.600 Y-23.155 E28.42374
G1 X-11.905 Y-25.850 E28.54415
G1 X11.905 Y-25.850 E29.29650
G1 X14.600 Y-23.155 E29.41691 F2160.000
G1 X14.600 Y-0.060 E30.14665
G1 X14.200 Y0.000 F14400.000
G1 X14.200 Y22.990 E30.87306 F2160.000
G1 X11.740 Y25.450 E30.98300
G1 X-11.740 Y25.450 E31.72488
G1 X-14.200 Y22.990 E31.83482
G1 X-14.200 Y-22.990 E33.28764
G1 X-11.740 Y-25.450 E33.39758
G1 X11.740 Y-25.450 E34.13946
G1 X14.200 Y-22.990 E34.24940
G1 X14.200 Y-0.060 E34.97391 F2160.000
G1 X13.800 Y0.000 F14400.000
G1 X13.800 Y22.824 E35.69508 F2160.000
G1 X11.574 Y25.050 E35.79455
G1 X-11.574 Y25.050 E36.52596
G1 X-13.800 Y22.824 E36.62543
G1 X-13.800 Y-22.824 E38.06778
G1 X-11.574 Y-25.050 E38.16725
G1 X11.574 Y-25.050 E38.89866
G1 X13.800 Y-22.824 E38.99813 F2160.000
G1 X13.800 Y-0.060 E39.71740
G1 X13.400 Y0.000 F14400.000
G1 X13.400 Y22.658 E40.43334 F2160.000
G1 X11.408 Y24.650 E40.52234
G1 X-11.408 Y24.650 E41.24328
G1 X-13.400 Y22.658 E41.33228
G1 X-13.400 Y-22.658 E42.76416
G1 X-11.408 Y-24.650 E42.85315
G1 X11.408 Y-24.650 E43.57409
G1 X13.400 Y-22.658 E43.66309
G1 X13.400 Y-0.060 E44.37714 F2160.000
G1 X13.000 Y0.000 F14400.000
G1 X13.000 Y22.493 E45.08784 F2160.000
G1 X11.243 Y24.250 E45.16637
G1 X-11.243 Y24.250 E45.87684
G1 X-13.000 Y22.493 E45.95536
G1 X-13.000 Y-22.493 E47.37677
G1 X-11.243 Y-24.250 E47.45530
G1 X11.243 Y-24.250 E48.16577
G1 X13.000 Y-22.493 E48.24430 F2160.000
G1 X13.000 Y-0.060 E48.95310
G1 X12.600 Y0.000 F14400.000
G1 X12.600 Y22.327 E49.65857 F2160.000
G1 X11.077 Y23.850 E49.72663
G1 X-11.077 Y23.850 E50.42663
G1 X-12.600 Y22.327 E50.49469
G1 X-12.600 Y-22.327 E51.90562
G1 X-11.077 Y-23.850 E51.97368
G1 X11.077 Y-23.850 E52.67368
G1 X12.600 Y-22.327 E52.74174
G1 X12.600 Y-0.060 E53.44531 F2160.000
G1 X12.200 Y0.000 F14400.000
G1 X12.200 Y22.161 E54.14554 F2160.000
G1 X10.911 Y23.450 E54.20313
G1 X-10.911 Y23.450 E54.89266
G1 X-12.200 Y22.161 E54.95024
G1 X-12.200 Y-22.161 E56.35071
G1 X-10.911 Y-23.450 E56.40830
G1 X10.911 Y-23.450 E57.09783
G1 X12.200 Y-22.161 E57.15541 F2160.000
G1 X12.200 Y-0.060 E57.85375
G1 X11.800 Y0.000 F14400.000
G1 X11.800 Y21.996 E58.54875 F2160.000
G1 X10.746 Y23.050 E58.59586
G1 X-10.746 Y23.050 E59.27492
G1 X-11.800 Y21.996 E59.32204
G1 X-11.800 Y-21.996 E60.71203
G1 X-10.746 Y-23.050 E60.75915
G1 X10.746 Y-23.050 E61.43821
G1 X11.800 Y-21.996 E61.48533
G1 X11.800 Y-0.060 E62.17843 F2160.000
G1 X11.400 Y0.000 F14400.000
G1 X11.400 Y21.830 E62.86819 F2160.000
G1 X10.580 Y22.650 E62.90484
G1 X-10.580 Y22.650 E63.57342
G1 X-11.400 Y21.830 E63.61007
G1 X-11.400 Y-21.830 E64.98960
G1 X-10.580 Y-22.650 E65.02624
G1 X10.580 Y-22.650 E65.69483
G1 X11.400 Y-21.830 E65.73148 F2160.000
G1 X11.400 Y-0.060 E66.41934
G1 X11.000 Y0.000 F14400.000
G1 X11.000 Y21.664 E67.10387 F2160.000
G1 X10.414 Y22.250 E67.13005
G1 X-10.414 Y22.250 E67.78816
G1 X-11.000 Y21.664 E67.81434
G1 X-11.000 Y-21.664 E69.18339
G1 X-10.414 Y-22.250 E69.20957
G1 X10.414 Y-22.250 E69.86769
G1 X11.000 Y-21.664 E69.89386
G1 X11.000 Y-0.060 E70.57650 F2160.000
G1 X10.600 Y0.000 F14400.000
G1 X10.600 Y21.499 E71.25579 F2160.000
G1 X10.249 Y21.850 E71.27149
G1 X-10.249 Y21.850 E71.91914
G1 X-10.600 Y21.499 E71.93485
G1 X-10.600 Y-21.499 E73.29343
G1 X-10.249 Y-21.850 E73.30914
G1 X10.249 Y-21.850 E73.95678
G1 X10.600 Y-21.499 E73.97249 F2160.000
G1 X10.600 Y-0.060 E74.64989
G1 F9000.000 E64.64989
G1 Z0.400 F14400.000
G92 E0
G1 X10.200 Y21.333 F14400.000
G1 Z0.200 F14400.000
G1 E10.00000 F9000.000
G1 X10.083 Y21.450 E10.00524 F2160.000
G1 X-10.083 Y21.450 E10.64241
G1 X-10.200 Y21.333 E10.64765
G1 X-10.200 Y-21.333 E11.99576
G1 X-10.083 Y-21.450 E12.00100
G1 X10.083 Y-21.450 E12.63817
G1 X10.200 Y-21.333 E12.64341
G1 X10.200 Y21.273 E13.98963
G1 F9000.000 E3.98963
G1 Z0.400 F14400.000
G92 E0
G1 X-9.800 Y21.050 F14400.000
G1 Z0.200 F14400.000
G1 E10.00000 F9000.000
G1 X-9.800 Y-21.050 E11.33024 F1386.000
G1 X9.800 Y-21.050 E11.94954
G1 X9.800 Y21.050 E13.27978
G1 X-9.740 Y21.050 E13.89719
G1 X-9.600 Y20.704 F14400.000
G1 X-9.400 Y20.650 F14400.000
G1 X-9.400 Y-20.650 E15.20215 F1980.000
G1 X9.400 Y-20.650 E15.79618
G1 X9.400 Y20.650 E17.10114
G1 X-9.340 Y20.650 E17.69327
G1 X-9.000 Y20.250 F14400.000
G1 X-9.000 Y-20.250 E18.97295 F1980.000
G1 X9.000 Y-20.250 E19.54170
G1 X9.000 Y20.250 E20.82139
G1 X-8.940 Y20.250 E21.38824
G1 X-5.680 Y10.842 F14400.000
G1 X-6.060 Y10.678 E21.40132 F1386.000
G1 X-6.402 Y10.445 E21.41441
G1 X-6.695 Y10.152 E21.42749
G1 X-6.858 Y9.929 E21.43622
G1 X-7.046 Y9.560 E21.44930
G1 X-7.161 Y9.162 E21.46239
G1 X-7.200 Y8.750 E21.47547
G1 X-7.161 Y8.338 E21.48856
G1 X-7.046 Y7.940 E21.50164
G1 X-6.858 Y7.571 E21.51473
G1 X-6.604 Y7.244 E21.52781
G1 X-6.402 Y7.055 E21.53654
G1 X-6.060 Y6.822 E21.54962
G1 X-5.680 Y6.658 E21.56271
G1 X-5.276 Y6.567 E21.57579
G1 X-4.881 Y6.554 E21.58828
G1 X-4.430 Y6.614 E21.60266 F1386.000
G1 X-4.430 Y6.601 E21.60307
G1 X-4.063 Y6.759 E21.61569
G1 X-3.821 Y6.892 E21.62442
G1 X-3.598 Y7.055 E21.63315
G1 X-3.305 Y7.348 E21.64624
G1 X-3.142 Y7.571 E21.65496
G1 X-3.009 Y7.813 E21.66369
G1 X-2.869 Y8.203 E21.67678
G1 X-2.817 Y8.474 E21.68551
G1 X-2.800 Y8.750 E21.69424
G1 X-2.839 Y9.162 E21.70732
G1 X-2.954 Y9.560 E21.72041
G1 X-3.142 Y9.929 E21.73349
G1 X-3.396 Y10.256 E21.74658
G1 X-3.598 Y10.445 E21.75531
G1 X-3.821 Y10.608 E21.76404
G1 X-4.063 Y10.741 E21.77277
G1 X-4.430 Y10.899 E21.78538
G1 X-4.430 Y10.886 E21.78580
G1 X-4.862 Y10.946 E21.79959
G1 X-5.138 Y10.946 E21.80831
G1 X-5.412 Y10.911 E21.81704
G1 X-5.622 Y10.859 E21.82388
G1 X-4.829 Y6.157 F14400.000
G1 F9000.000 E11.82388
G1 Z0.400 F14400.000
G92 E0
G1 X-5.815 Y11.219 F14400.000
G1 Z0.200 F14400.000
G1 E10.00000 F9000.000
G1 X-6.253 Y11.029 E10.01507 F1980.000
G1 X-6.657 Y10.754 E10.03053
G1 X-7.004 Y10.407 E10.04600
G1 X-7.279 Y10.003 E10.06146
G1 X-7.473 Y9.554 E10.07692
G1 X-7.580 Y9.076 E10.09239
G1 X-7.600 Y8.750 E10.10271
G1 X-7.554 Y8.263 E10.11817
G1 X-7.418 Y7.793 E10.13363
G1 X-7.196 Y7.357 E10.14910
G1 X-6.896 Y6.970 E10.16456
G1 X-6.529 Y6.646 E10.18002
G1 X-6.107 Y6.397 E10.19549
G1 X-5.647 Y6.231 E10.21095
G1 X-5.163 Y6.155 E10.22642
G1 X-4.830 Y6.155 E10.23696
G1 X-4.830 Y5.992 E10.24212 F1980.000
G1 X-3.747 Y6.471 E10.27953
G1 X-3.343 Y6.746 E10.29499
G1 X-3.104 Y6.970 E10.30531
G1 X-2.896 Y7.221 E10.31562
G1 X-2.647 Y7.643 E10.33109
G1 X-2.481 Y8.103 E10.34656
G1 X-2.420 Y8.424 E10.35687
G1 X-2.400 Y8.750 E10.36719
G1 X-2.446 Y9.237 E10.38266
G1 X-2.582 Y9.707 E10.39812
G1 X-2.804 Y10.143 E10.41359
G1 X-3.104 Y10.530 E10.42905
G1 X-3.343 Y10.754 E10.43937
G1 X-3.607 Y10.945 E10.44969
G1 X-3.893 Y11.103 E10.46000
G1 X-4.830 Y11.508 E10.49226
G1 X-4.830 Y11.345 E10.49742
G1 X-5.326 Y11.330 E10.51310
G1 X-5.758 Y11.236 E10.52707
G1 X-5.230 Y11.741 F14400.000
G1 X-5.746 Y11.656 E10.54361 F1980.000
G1 X-6.105 Y11.540 E10.55552
G1 X-6.608 Y11.283 E10.57336
G1 X-6.913 Y11.062 E10.58527
G1 X-7.312 Y10.663 E10.60311
G1 X-7.533 Y10.358 E10.61502
G1 X-7.715 Y10.028 E10.62692
G1 X-7.854 Y9.677 E10.63883
G1 X-7.977 Y9.126 E10.65667
G1 X-8.000 Y8.750 E10.66858
G1 X-7.977 Y8.374 E10.68049
G1 X-7.906 Y8.004 E10.69239
G1 X-7.715 Y7.472 E10.71023
G1 X-7.533 Y7.142 E10.72214
G1 X-7.312 Y6.837 E10.73405
G1 X-7.054 Y6.563 E10.74596
G1 X-6.608 Y6.217 E10.76380
G1 X-6.278 Y6.035 E10.77570
G1 X-5.746 Y5.844 E10.79354
G1 X-5.230 Y5.759 E10.81009
G1 X-5.230 Y5.383 E10.82198
G1 X-3.554 Y6.121 E10.87982
G1 X-3.087 Y6.438 E10.89767
G1 X-2.813 Y6.696 E10.90957
G1 X-2.467 Y7.142 E10.92742
G1 X-2.210 Y7.646 E10.94526
G1 X-2.053 Y8.188 E10.96310
G1 X-2.000 Y8.750 E10.98095
G1 X-2.053 Y9.312 E10.99879
G1 X-2.210 Y9.855 E11.01664
G1 X-2.467 Y10.358 E11.03448
G1 X-2.688 Y10.663 E11.04639
G1 X-2.946 Y10.937 E11.05829
G1 X-3.236 Y11.177 E11.07020
G1 X-3.555 Y11.379 E11.08210
G1 X-5.230 Y12.117 E11.13994
G1 X-5.230 Y11.801 E11.14994
G1 F9000.000 E1.14994
G1 Z0.400 F14400.000
G92 E0
G1 X4.063 Y-9.259 F14400.000
G1 Z0.200 F14400.000
G1 E10.00000 F9000.000
G1 X3.707 Y-9.470 E10.01309 F1386.000
G1 X3.396 Y-9.744 E10.02617
G1 X3.142 Y-10.071 E10.03925
G1 X3.009 Y-10.313 E10.04798
G1 X2.869 Y-10.703 E10.06107
G1 X2.815 Y-10.993 E10.07039
G1 X2.804 Y-11.388 E10.08288
G1 X2.869 Y-11.797 E10.09596
G1 X3.009 Y-12.187 E10.10905
G1 X3.142 Y-12.429 E10.11778
G1 X3.396 Y-12.756 E10.13086
G1 X3.707 Y-13.030 E10.14394
G1 X4.063 Y-13.241 E10.15703
G1 X4.453 Y-13.381 E10.17011
G1 X4.862 Y-13.446 E10.18320
G1 X5.138 Y-13.446 E10.19193
G1 X5.547 Y-13.381 E10.20502 F1386.000
G1 X5.810 Y-13.296 E10.21374
G1 X6.060 Y-13.178 E10.22248
G1 X6.402 Y-12.945 E10.23556
G1 X6.604 Y-12.756 E10.24429
G1 X6.780 Y-12.543 E10.25302
G1 X6.928 Y-12.310 E10.26175
G1 X7.167 Y-11.840 E10.27841
G1 X7.133 Y-11.840 E10.27949
G1 X7.198 Y-11.366 E10.29460
G1 X7.220 Y-11.366 E10.29530
G1 X7.220 Y-11.134 E10.30266
G1 X7.198 Y-11.134 E10.30335
G1 X7.133 Y-10.660 E10.31846
G1 X7.167 Y-10.660 E10.31955
G1 X6.928 Y-10.190 E10.33621
G1 X6.695 Y-9.848 E10.34929
G1 X6.402 Y-9.555 E10.36238
G1 X6.179 Y-9.392 E10.37111
G1 X5.937 Y-9.259 E10.37984
G1 X5.547 Y-9.119 E10.39292
G1 X5.276 Y-9.067 E10.40165
G1 X5.000 Y-9.050 E10.41038
G1 X4.588 Y-9.089 E10.42346
G1 X4.320 Y-9.158 E10.43220
G1 X4.118 Y-9.235 E10.43903
G1 X5.205 Y-13.840 F14400.000
G1 F9000.000 E0.43903
G1 Z0.400 F14400.000
G92 E0
G1 X3.881 Y-8.903 F14400.000
G1 Z0.200 F14400.000
G1 E10.00000 F9000.000
G1 X3.471 Y-9.146 E10.01507 F1980.000
G1 X3.104 Y-9.470 E10.03053
G1 X2.804 Y-9.857 E10.04599
G1 X2.647 Y-10.143 E10.05631
G1 X2.481 Y-10.603 E10.07177
G1 X2.420 Y-10.924 E10.08209
G1 X2.400 Y-11.250 E10.09241
G1 X2.446 Y-11.737 E10.10787
G1 X2.582 Y-12.207 E10.12333
G1 X2.804 Y-12.643 E10.13880
G1 X3.104 Y-13.030 E10.15427
G1 X3.342 Y-13.254 E10.16458
G1 X3.607 Y-13.446 E10.17490
G1 X4.043 Y-13.668 E10.19037
G1 X4.353 Y-13.769 E10.20068
G1 X4.837 Y-13.845 E10.21615
G1 X5.163 Y-13.845 E10.22647 F1980.000
G1 X5.487 Y-13.804 E10.23678
G1 X5.957 Y-13.668 E10.25225
G1 X6.393 Y-13.446 E10.26771
G1 X6.780 Y-13.146 E10.28318
G1 X7.004 Y-12.907 E10.29350
G1 X7.196 Y-12.643 E10.30381
G1 X7.820 Y-11.440 E10.34665
G1 X7.629 Y-11.440 E10.35270
G1 X7.611 Y-11.250 E10.35874
G1 X7.629 Y-11.060 E10.36478
G1 X7.820 Y-11.060 E10.37084
G1 X7.279 Y-9.997 E10.40852
G1 X7.104 Y-9.721 E10.41884
G1 X6.896 Y-9.470 E10.42915
G1 X6.657 Y-9.246 E10.43947
G1 X6.253 Y-8.971 E10.45493
G1 X5.957 Y-8.832 E10.46526
G1 X5.647 Y-8.731 E10.47557
G1 X5.163 Y-8.655 E10.49103
G1 X4.837 Y-8.655 E10.50136
G1 X4.513 Y-8.696 E10.51167
G1 X4.196 Y-8.777 E10.52199
G1 X3.936 Y-8.878 E10.53082
G1 X3.700 Y-8.547 F14400.000
G1 X3.236 Y-8.823 E10.54786 F1980.000
G1 X2.813 Y-9.196 E10.56570
G1 X2.467 Y-9.642 E10.58355
G1 X2.285 Y-9.972 E10.59545
G1 X2.094 Y-10.504 E10.61329
G1 X2.019 Y-10.918 E10.62659
G1 X2.005 Y-11.438 E10.64304
G1 X2.094 Y-11.996 E10.66089
G1 X2.285 Y-12.528 E10.67873
G1 X2.467 Y-12.858 E10.69064
G1 X2.813 Y-13.304 E10.70848
G1 X3.236 Y-13.677 E10.72632
G1 X3.722 Y-13.965 E10.74417
G1 X4.254 Y-14.156 E10.76201
G1 X4.812 Y-14.245 E10.77986
G1 X5.189 Y-14.245 E10.79177
G1 X5.746 Y-14.156 E10.80962 F1980.000
G1 X6.278 Y-13.965 E10.82746
G1 X6.608 Y-13.783 E10.83936
G1 X7.054 Y-13.437 E10.85720
G1 X7.312 Y-13.163 E10.86911
G1 X7.533 Y-12.858 E10.88102
G1 X7.899 Y-12.166 E10.90573
G1 X8.099 Y-12.166 E10.91204
G1 X8.068 Y-11.836 E10.92255
G1 X8.259 Y-11.460 E10.93587
G1 X8.473 Y-11.460 E10.94263
G1 X8.366 Y-11.250 E10.95007
G1 X8.473 Y-11.040 E10.95751
G1 X8.259 Y-11.040 E10.96427
G1 X8.068 Y-10.664 E10.97760
G1 X8.099 Y-10.334 E10.98810
G1 X7.899 Y-10.334 E10.99442
G1 X7.629 Y-9.805 E11.01318
G1 X7.312 Y-9.337 E11.03102
G1 X6.913 Y-8.938 E11.04887
G1 X6.446 Y-8.621 E11.06671
G1 X6.104 Y-8.460 E11.07862
G1 X5.746 Y-8.344 E11.09052
G1 X5.188 Y-8.255 E11.10837
G1 X4.811 Y-8.255 E11.12028
G1 X4.438 Y-8.303 E11.13217
G1 X4.073 Y-8.396 E11.14408
G1 X3.754 Y-8.521 E11.15490
G1 X4.090 Y-8.116 F14400.000
G1 X8.730 Y-3.476 E11.36223 F1620.000
G1 X8.730 Y-4.044 E11.38017
G1 X4.775 Y-7.998 E11.55688
G1 X5.336 Y-8.005 E11.57460
G1 X8.730 Y-4.611 E11.72625
G1 X8.730 Y-5.179 E11.74419
G1 X5.824 Y-8.085 E11.87403
G1 X6.242 Y-8.235 E11.88805
G1 X8.730 Y-5.747 E11.99924
G1 X8.730 Y-6.315 E12.01718
G1 X6.626 Y-8.419 E12.11119
G1 X6.962 Y-8.650 E12.12409
G1 X8.730 Y-6.882 E12.20308
G1 X8.730 Y-7.450 E12.22102
G1 X7.276 Y-8.904 E12.28601
G1 X7.547 Y-9.201 E12.29870
G1 X8.730 Y-8.018 E12.35158
G1 X8.730 Y-8.586 E12.36952
G1 X7.782 Y-9.534 E12.41190
G1 X7.978 Y-9.905 E12.42518
G1 X8.730 Y-9.153 E12.45878
G1 X8.730 Y-9.721 E12.47672
G1 X8.387 Y-10.064 E12.49203
G1 X8.730 Y-10.289 E12.50498
G1 X8.365 Y-10.654 E12.52128
G1 X8.730 Y-11.992 F14400.000
G1 X7.815 Y-12.907 E12.56218 F1620.000
G1 X6.664 Y-14.058 F14400.000
G1 X0.742 Y-19.980 E12.82682 F1620.000
G1 X1.310 Y-19.980 E12.84476
G1 X8.730 Y-12.560 E13.17634
G1 X8.730 Y-13.127 E13.19428
G1 X1.877 Y-19.980 E13.50049
G1 X2.445 Y-19.980 E13.51843
G1 X8.730 Y-13.695 E13.79927
G1 X8.730 Y-14.263 E13.81721
G1 X3.013 Y-19.980 E14.07269
G1 X3.581 Y-19.980 E14.09063
G1 X8.730 Y-14.831 E14.32073
G1 X8.730 Y-15.398 E14.33867
G1 X4.148 Y-19.980 E14.54341
G1 X4.716 Y-19.980 E14.56135
G1 X8.730 Y-15.966 E14.74072
G1 X8.730 Y-16.534 E14.75865
G1 X5.284 Y-19.980 E14.91265
G1 X5.851 Y-19.980 E14.93059
G1 X8.730 Y-17.101 E15.05922
G1 X8.730 Y-17.669 E15.07716
G1 X6.419 Y-19.980 E15.18042
G1 X6.987 Y-19.980 E15.19836
G1 X8.730 Y-18.237 E15.27626
G1 X8.730 Y-18.805 E15.29420
G1 X7.555 Y-19.980 E15.34672
G1 X8.122 Y-19.980 E15.36466
G1 X8.730 Y-19.372 E15.39181
G1 X8.730 Y-19.940 E15.40975
G1 X8.690 Y-19.980 E15.41154
G1 X5.722 Y-14.432 F14400.000
G1 X0.174 Y-19.980 E15.65945 F1620.000
G1 X-0.394 Y-19.980 E15.67739
G1 X5.072 Y-14.515 E15.92160
G1 X4.543 Y-14.475 E15.93834
G1 X-0.961 Y-19.980 E16.18431
G1 X-1.529 Y-19.980 E16.20225
G1 X4.073 Y-14.378 E16.45257
G1 X3.655 Y-14.228 E16.46659
G1 X-2.097 Y-19.980 E16.72363
G1 X-2.664 Y-19.980 E16.74157
G1 X3.292 Y-14.024 E17.00772
G1 X2.957 Y-13.791 E17.02060
G1 X-3.232 Y-19.980 E17.29716
G1 X-3.800 Y-19.980 E17.31510
G1 X2.655 Y-13.525 E17.60355
G1 X2.400 Y-13.212 E17.61629
G1 X-4.368 Y-19.980 E17.91871
G1 X-4.935 Y-19.980 E17.93664
G1 X2.169 Y-12.876 E18.25408
G1 X1.982 Y-12.495 E18.26749
G1 X-5.503 Y-19.980 E18.60195
G1 X-6.071 Y-19.980 E18.61989
G1 X1.845 Y-12.065 E18.97359
G1 X1.752 Y-11.590 E18.98888
G1 X-6.639 Y-19.980 E19.36381
